X:39
T:Wes Muirâ€™s Tune
R:Reel
M:4/4
L:1/8
N:Transcribed by Bruce Thomson from the
N:playing of Marj Mullany
K:C
z2E2F2^F2|:â€Câ€G2e2e3d|eged cBAB|c2cB AGEG|cdcB AGE2|
â€œGâ€D2d2d3^c|dedc BGAB|â€Câ€c2cB AGE2|[1C2E2F2^F2:|[2C2c2d2e2||
|:â€Fâ€[f3c3][fc][f2c2]|[f4c4]fgag|â€Câ€e2c2G2c2|e2ef gfe2|â€Gâ€d2B2G2B2|
d^cde fed2|â€Câ€[1cGAB cBcd|e2c2d2e2:|â€Câ€[2c2cB AGE2|[C3E3][CE][C4E4]||

